X: 18
T: The Munichausen
R: march, reel
M: 2/4
L: 1/8
Z: 2010 John Chambers <jc:trillian.mit.edu> (tune)
Z: 2015 John Chambers <jc:trillian.mit.edu> (dance)
S: http://archive.org/details/imslp-american-country-dances-1785-various
S: http://imslp.org/wiki/24_American_Country_Dances_(Cantelo,_Hezekiah)
B: Cantelo ed. "Twenty Four American Country Dances", London 1785 (Longman & Broderip)
N: Fixed the "strange" 1st/2nd ending notation of the 2nd part
N: The note values don't add up right between parts 3 and 4.
K: Bb
% - - - - - - - - - - - - - - - - - - - - - - - - - - - - -
V: 1
|: f/e/d/c/ Bd | BdBd | cece | d/c/d/e/ f2 | f/e/d/c/ Bd | BdBd | c>eA>c | B3z :|
|: fedc | edcB | dcBA | {A}B2F2 | fedc | edcB | dcBA |1 {A}B2z2 :|2 {A}B2z2 ||
|: dede | dedg | e>cBA | B2G2 | dede | dedg | e>cBA | G3z :|
|: f | (=ef)(c_e) | .d.B zf | (=ef)(c_e) | B2zf | (=ef)(c_e) | .d.B zf |  (=ef)(c_e) | B2zf :|
|: d2e2 | .f.fed | .e.edc | B/c/d/e/ f/g/a/b/ | d2e2 | .f.fed | .e.ecA | [B3D3]z :|
% - - - - - - - - - - - - - - - - - - - - - - - - - - - - -
V: 2 clef=bass middle=d
|: B2b2 | B2b2 | a2f2 | b2B2 | B2B2 B2B2 | e2f2 | Bbfd :|
|: z2f2 | b2B2 | f2F2 | B2b2 | d2f2 | b2e2 | f2F2 |1 B4 :|2 B2ba ||
|: g2d2 | B2G2 | c2d2 | g2G2 | g2d2 | B2G2 | c2d2 | [gG]d[gG]z :|
|: a | b2f2 | b2B2 | b2f2 | dBdf | b2f2 | b2B2 | b2f2 | dBdf :|
|: B2c2 | d2B2 | f2F2 | B2z2 | B2c2 | d2B2 | f2F2 | BbBz :|
% - - - - - - - - - - Dance description - - - - - - - - - -
%%begintext align
%% Cast down 2 Cu: up again lead down the middle up again. & cast off --
%% set to your partner -- set to 2d Lady -- set to partner -- set to 1st Lady --
%% Hands 4 round at bottom -- Right & Left at Top --
%%endtext

%%sep 2 1 500

